!!!ONB: MCCC : IGF0112_01 : Extracted Monophonic Melody
!!!COM: Fauré, Gabriel
!!!OPR: Violin Sonata No.1
!!!OMV: 1
!!!SCT: Op.13
!!!ODT: 1875///
**kern
*staff1
*clefG2
*k[f#c#g#]
*A:
*M2/2
4ee
=24
2ff#
2dd
=25
4b
2ee
4ee
=26
2ff#
2gg#
=27
4aa
2ee#
4ff#
=28
2gg
2ee
=29
2cc#
4ff#
4gg
=30
2aa
2bb
=31
2ccc
4bb
4aa
=32
2gg
2ee#
=33
1ee
=34
1eee
=35
2eee
4ddd
4ccc#
=36
2bb
2aa
=37
1gg#
=38
4aa
4bb
4ccc#
4ddd#
=39
1gg#
=40
4aa#
4bb#
4ccc#
4ddd#
=41
2eee
4ddd#
4ccc#
=42
2bb
4aa#
4gg#
=43
2eee
4ddd
4ccc#
=44
2fff#
4ff#
4ee#
=45
1ee
=46
4ff#
4gg#
4aa
4bb
=47
2.ee
4e
=48
4f#
4g#
4a
4b
=49
4cc
4cc#
4dd#
4ee
=50
4dd#
4ee
4ff#
4gg
=51
1r
=52
1r
=53
8c
8cc
8c#
8cc#
8d#
8dd#
8e
8ee
=54
8d#
8dd#
8e
8ee
8f#
8ff#
8g
8gg
=55
1r
=56
1r
=57
2.gg#
4ff#
=58
2ee
4dd#
4cc#
=59
2.b#
4cc#
=60
4dd
4dd#
4ff#
4bb
=61
2.bb
4aa
=62
2gg
4ff#
4ee
=63
2.dd#
4ee
=64
4ee#
4ff#
4aa
4ddd
=65
2.ddd
4ccc
=66
2.bb
4aa
=67
2.gg#
4ff#
=68
4gg#
4aa
4bb
4ccc
=69
4r
4dd
4ddd
4ccc[
=70
4ccc]
2bb
4aa[
=71
4aa]
2gg#
4ff#
=72
4gg#
4aa
4bb
4ccc
=73
2.ddd
4bb
=74
2.eee
4ddd
=75
4ccc
4bb
4.aa#
8aa#
=76
2.ccc#
4bb
=77
4aa
4gg#
4ff#
4ee
=78
4dd#
4ee
4ff#
4gg
=79
1gg#
=80
1aa[
=81
2aa]
4gg#
4ff#
=82
1r
=83
1r
=84
1r
=85
1r
=86
4d#
4e
4f#
4g#
=87
4a
4b
4cc#
4dd
=88
4dd#
4ee
4ff#
4gg
=89
4aa
4aa#
4bb
4bb
=90
8d#
8dd#
8e
8ee
8f#
8ff#
8g#
8gg#
=91
8a
8aa
8b
8bb
8cc#
8ccc#
8dd
8ddd
=92
8dd#
8ddd#
8ee
8eee
8ff#
8fff#
8gg
8ggg
=93
8aa
8aaa
8aa#
8aaa#
8bb
8bbb
8bb
8bbb
=94
1r
=95
4r
4aa#
4bb
4bb
=96
1r
=97
4r
8a#
8aa#
8b
8bb
8b
8bb
=98
1r
=99
4r
4gg
4gg#
4gg#
=100
1r
=101
4r
8g
8gg
8g#
8gg#
8g#
8gg#
=102
1r
=103
1r
=104
1r
=105
1r
=106
1r
=107
1r
=108
1r
=109
1r
=110
1r
=111
1r
=112
1r
=113
1r
=114
1r
=115
1r
=116
1r
=117
1r
=118
1r
=119
1r
=120
1r
=121
1r
=122
1r
=123
1r
=124
2r
4r
4ee
=125
2ff#
2dd
=126
4b
2ee
4ee
=127
2ff#
2gg#
=128
4aa
2ee#
4ff#
=129
2gg
2ee
=130
2cc#
4ff#
4gg
=131
2aa
2bb
=132
2ccc
4bb
4aa
=133
2gg
2ee#
=134
1ee
=135
1eee
=136
2eee
4ddd
4ccc#
=137
2bb
2aa
=138
1gg#
=139
4aa
4bb
4ccc#
4ddd#
=140
1gg#
=141
4aa#
4bb#
4ccc#
4ddd#
=142
2eee
4ddd#
4ccc#
=143
2bb
4aa#
4gg#
=144
2eee
4ddd
4ccc#
=145
2fff#
4ff#
4ee#
=146
1ee
=147
4ff#
4gg#
4aa
4bb
=148
2.ee
4e
=149
4f#
4g#
4a
4b
=150
4cc
4cc#
4dd#
4ee
=151
4dd#
4ee
4ff#
4gg
=152
1r
=153
1r
=154
8c
8cc
8c#
8cc#
8d#
8dd#
8e
8ee
=155
8d#
8dd#
8e
8ee
8f#
8ff#
8g
8gg
=156
1r
=157
1r
=158
2.gg#
4ff#
=159
2ee
4dd#
4cc#
=160
2.b#
4cc#
=161
4dd
4dd#
4ff#
4bb
=162
2.bb
4aa
=163
2gg
4ff#
4ee
=164
2.dd#
4ee
=165
4ee#
4ff#
4aa
4ddd
=166
2.ddd
4ccc
=167
2.bb
4aa
=168
2.gg#
4ff#
=169
4gg#
4aa
4bb
4ccc
=170
4r
4dd
4ddd
4ccc[
=171
4ccc]
2bb
4aa[
=172
4aa]
2gg#
4ff#
=173
4gg#
4aa
4bb
4ccc
=174
2.ddd
4bb
=175
2.eee
4ddd
=176
4ccc
4bb
4.aa#
8aa#
=177
2.ccc#
4bb
=178
4aa
4gg#
4ff#
4ee
=179
4dd#
4ee
4ff#
4gg
=180
1gg#
=181
1aa[
=182
2aa]
4gg#
4ff#
=183
1r
=184
1r
=185
1r
=186
1r
=187
4d#
4e
4f#
4g#
=188
4a
4b
4cc#
4dd
=189
4dd#
4ee
4ff#
4gg
=190
4aa
4aa#
4bb
4bb
=191
8d#
8dd#
8e
8ee
8f#
8ff#
8g#
8gg#
=192
8a
8aa
8b
8bb
8cc#
8ccc#
8dd
8ddd
=193
8dd#
8ddd#
8ee
8eee
8ff#
8fff#
8gg
8ggg
=194
8aa
8aaa
8aa#
8aaa#
8bb
8bbb
8bb
8bbb
=195
1r
=196
4r
4aa#
4bb
4bb
=197
1r
=198
4r
8a#
8aa#
8b
8bb
8b
8bb
=199
1r
=200
4r
4gg
4gg#
4gg#
=201
1r
=202
4r
8g
8gg
8g#
8gg#
8g#
8gg#
=203
1r
=204
1r
=205
1r
=206
2r
4r
4a
=207
2a#
2a
=208
2e#
2c
=209
1r
=210
2r
4r
4e#
=211
4cc
4b
4dd
4cc[
=212
4cc]
4a
4cc
4a#
=213
1a[
=214
2a]
4r
4e#
=215
4ee#
4ee
4gg
4ee#[
=216
4ee#]
4cc#
4ee
4dd
=217
2cc#
2b
=218
2r
2c#
=219
4e
4d
4e#
4e[
=220
4e]
4d
4f#
4e
=221
2d
2c#
=222
1r
=223
1r
=224
2r
4r
4cc#
=225
2dd
2cc#
=226
2a
2e[
=227
2e]
2r
=228
2r
4r
4a
=229
4ee
4dd#
4ff#
4ee[
=230
4ee]
4cc#
4ee
4dd
=231
1cc#[
=232
2cc#]
4r
4a
=233
4aa
4gg#
4bb
4aa[
=234
4aa]
4ee#
4gg#
4ff#
=235
4ee#
4dd#
4ff#
4ee#[
=236
4ee#]
4dd#
4ff#
4ee#
=237
2dd#
2cc#
=238
2r
4r
4ccc#
=239
2ddd
2ccc#[
=240
2ccc#]
2gg#
=241
2gg#
2cc#[
=242
1cc#]
=243
1r
=244
8c#
8A
8d
8A
8e
8A
8e#
8A
=245
8e
8A
8d
8A
2c#
=246
2r
4r
4ccc#
=247
2ddd
8cc#
8ccc#
8cc
8ccc
=248
8cc#
8ccc#
8a
8aa
8g#
8gg#
8f#
8ff#
=249
8e#
8ee#
8d
8dd
8c#
8cc#
8c
8cc
=250
1cc#
=251
1r
=252
8c#
8A
8d
8A
8e
8A
8e#
8A
=253
8e
8A
8d
8A
2c#
=254
1r
=255
1f#
=256
4g#
4a
4b
4cc#
=257
1f#
=258
4g#
4a
4b
4cc#
=259
1f#
=260
4g#
4a
4b
4cc#
=261
4dd
4cc#
4ee
4dd
=262
4cc#
4b
4a
4g#
=263
1f#
=264
4g#
4a
4b
4cc#
=265
1f#
=266
4g#
4a
4b
4cc#
=267
1f#
=268
4g#
4a
4b
4cc#
=269
4dd
4cc#
4ee
4dd
=270
4cc#
4b
4a#
4g#
=271
8f#
8f#
8c#
8c#
8f#
8f#
8a#
8a#
=272
8a
8a
8a#
8a#
8cc
8cc
8a
8a
=273
8a#
8a#
8cc#
8cc#
8ff#
8ff#
8aa#
8aa#
=274
8aa
8aa
8aa#
8aa#
8ccc
8ccc
8aa
8aa
=275
4aa#
8c#
8c#
8f#
8f#
8a#
8a#
=276
8a
8a
8a#
8a#
8cc
8cc
8a
8a
=277
8a#
8a#
8A#
8A#
8cc
8cc
8a#
8a#
=278
8a
8a
8A
8A
8e#
8e#
8d#
8d#
=279
2c#
2a#
=280
4b#
4cc#
4dd#
4ee#
=281
1a#
=282
4b#
4cc#
4dd#
4ee#
=283
1a#
=284
4b#
4cc#
4dd#
4ee#
=285
4ff#
4ee#
4gg#
4ff#
=286
4ee#
4dd#
4cc#
4b#
=287
4dd#
4cc#
4ee#
4dd#
=288
4cc#
4b#
4a#
4a
=289
4cc
4a#
4cc#
4b#
=290
4a#
4g#
4g
4f#
=291
1e#[
=292
4e#]
4f#
4g#
4a#
=293
1e#
=294
4f#
4g#
4a#
4cc
=295
2.e#
4f#
=296
4g#
4a#
4b#
4cc#
=297
4ee#
4dd#
4cc#
4a#
=298
4g#
4g
4f#
4d#
=299
8c#
8c#
8c
8c
8A#
8A#
8G#
8G#
=300
8G
8G
8G#
8G#
8A
8A
8A#
8A#
=301
8B
8B
8c#
8c#
8d#
8d#
8e
8e
=302
8e#
8e#
8f#
8f#
8g
8g
8g#
8g#
=303
8a
8a
8g#
8g#
8f#
8f#
8e
8e
=304
8d#
8d#
8e
8e
8e#
8e#
8f#
8f#
=305
8g
8g
8a
8a
8b
8b
8cc
8cc
=306
8cc#
8cc#
8dd
8dd
8dd#
8dd#
8ee
8ee
=307
8ee#
8ee#
8ee
8ee
8dd
8dd
8cc
8cc
=308
8cc#
8cc#
8dd
8dd
8dd#
8dd#
8ee
8ee
=309
8ee#
8ee#
8gg
8gg
8aa
8aa
8aa#
8aa#
=310
8bb
8bb
8ccc
8ccc
8ddd
8ddd
8ddd#
8ddd#
=311
2.eee
4ddd
=312
2ccc
4bb
4aa
=313
2.gg
4aa
=314
4gg
4ee#
4ee
4dd
=315
2.ddd
4eee
=316
4ddd
4ccc
4bb
4aa
=317
1ccc
=318
1bb
=319
2.eee
4ddd
=320
2ccc
4aa#
4aa
=321
2.gg
4aa
=322
4gg
4ee#
4dd##
4ee#
=323
2.ddd
4eee
=324
4ddd
4ccc
4bb
4aa
=325
1ccc
=326
1bb
=327
2.ee
4dd
=328
2cc
4b
4a
=329
2.g
4g#
=330
4a
4cc
4ee
4dd#
=331
2.ee
4dd
=332
2cc
4b
4a
=333
2.g
4g#
=334
4a
4cc
4ee
4dd#
=335
2.ee
4g#
=336
4a
4cc
4ee
4dd#
=337
4ee
4gg#
4aa
4ccc
=338
2eee
2ddd#
=339
1eee
=340
1eee
=341
1eee[
=342
2.eee]
4eee
=343
2ggg
4eee#
4eee
=344
2ddd
4ccc
4aa#
=345
2aa
4gg
4ee#
=346
2gg
4ee#
4ee
=347
2dd
4cc
4a#
=348
2a
4g
4e#
=349
2d#
4d
4c
=350
2A#
4c
4A#
=351
2A
4B
4c#
=352
2d
4e
4d
=353
1b[
=354
1b]
=355
2e#
4f##
4g#
=356
2a
4b
4a
=357
1dd[
=358
1dd]
=359
2a#
4b#
4cc#
=360
2dd
4ee
4dd
=361
1bb
=362
4r
4ee
4ee#
4dd
=363
1bb
=364
4r
8e
8ee
8e#
8ee#
8d
8dd
=365
1bb[
=366
2bb]
2r
=367
1r
=368
2r
4r
4gg#
=369
2bb
2aa
=370
2ee
4a
4b
=371
2cc#
4ee
4gg#
=372
2.bb
4aa
=373
2ccc#
2bb
=374
2ff#
4b
4cc#
=375
2dd
4ff#
4aa#
=376
2.ccc#
4bb
=377
2fff#
2eee
=378
2gg
4ff#
4aa#
=379
2ccc#
2bb
=380
2ee#
4ee
4gg#
=381
4bb
4aa
4ff#
4cc#
=382
4a
4b
4cc#
4dd#
=383
1g#
=384
1r
=385
1r
=386
4A
4B
4c#
4d#
=387
2G#
2r
=388
1r
=389
1r
=390
2r
4r
4ee
=391
2ff#
2dd
=392
4b
2ee
4ee
=393
2ff#
2gg#
=394
4aa
2ee#
4ff#
=395
2gg
2ee
=396
2cc#
4ff#
4gg
=397
2aa
2bb
=398
2ccc
4bb
4aa
=399
2gg
2ee#
=400
1ee
=401
1eee
=402
2eee
4ddd
4ccc
=403
2bb
2aa
=404
2gg
2r
=405
1aa
=406
2aa
4gg
4ff#
=407
2ee
2dd
=408
1cc#
=409
4dd
4ee
4ff#
4gg#
=410
1cc#
=411
4dd#
4ee#
4ff#
4gg#
=412
2aa
4gg#
4ff#
=413
2ee
4dd#
4cc#
=414
2aa
4gg
4ff#
=415
2bb
4b
4a#
=416
1a
=417
4b
4cc#
4dd
4ee
=418
1a
=419
4b
4cc#
4dd
4ee
=420
4ee#
4ff#
4gg#
4aa
=421
4gg#
4aa
4bb
4ccc
=422
1r
=423
1r
=424
8e#
8ee#
8f#
8ff#
8g#
8gg#
8a
8aa
=425
8g#
8gg#
8a
8aa
8b
8bb
8cc
8ccc
=426
1r
=427
1r
=428
2.ccc#
4bb
=429
2aa
4gg#
4ff#
=430
2.ee#
4ff#
=431
4gg
4gg#
4bb
4eee
=432
2.eee
4ddd
=433
2ccc
4bb
4aa
=434
2.gg#
4aa
=435
4aa#
4bb
4ddd
4ggg
=436
2.ggg
4eee#
=437
2.eee
4ddd
=438
2.ccc#
4bb
=439
4ccc#
4ddd
4eee
4eee#
=440
4r
4gg
4ggg
4eee#[
=441
4eee#]
2eee
4ddd[
=442
4ddd]
2ccc#
4bb
=443
4ccc#
4ddd
4eee
4eee#
=444
2.ggg
4eee
=445
2.aaa
4ggg
=446
4eee#
4eee
4.ddd#
8ddd#
=447
2.fff#
4eee
=448
4ddd
4ccc#
4bb
4aa
=449
4gg#
4aa
4bb
4ccc
=450
1ccc#
=451
1ddd[
=452
2ddd]
4ccc#
4bb
=453
1r
=454
1r
=455
1r
=456
1r
=457
4g#
4a
4b
4cc#
=458
4dd
4ee
4ff#
4gg
=459
4gg#
4aa
4bb
4ccc
=460
4ddd
4ddd#
4eee
4eee
=461
8g#
8gg#
8a
8aa
8b
8bb
8cc#
8ccc#
=462
8dd
8ddd
8ee
8eee
8ff#
8fff#
8gg
8ggg
=463
8gg#
8ggg#
8aa
8aaa
8bb
8bbb
8ccc
8cccc
=464
8ddd
8dddd
8ddd#
8dddd#
8eee
8eeee
8eee
8eeee
=465
4r
4ddd#
4eee
4eee[
=466
4eee]
8ddd
8ddd
8ccc#
8ccc#
8aa#
8aa#
=467
8aa
8aa
8gg
8gg
8ee#
8ee#
8ee
8ee
=468
8ee#
8ee#
8ff#
8ff#
8gg
8gg
8aa
8aa
=469
4r
4aa#
4bb
4bb[
=470
4bb]
8aa
8aa
8gg#
8gg#
8ee#
8ee#
=471
8ee
8ee
8dd
8dd
8cc
8cc
8b
8b
=472
8cc
8cc
8dd
8dd
8dd#
8dd#
8ee
8ee
=473
4r
4eee#
4fff#
4fff#[
=474
4fff#]
8ddd#
8ddd#
8bb
8bb
8ccc#
8ccc#
=475
8ddd
8ddd
8bb
8bb
8gg#
8gg#
8aa
8aa
=476
8aa#
8aa#
8bb
8bb
8ccc#
8ccc#
8ddd
8ddd
=477
8cc#
8cc#
8ccc#
8ccc#
8ddd
8ddd
8ccc#
8ccc#
=478
8dd
8dd
8ddd
8ddd
8eee
8eee
8ddd
8ddd
=479
8ee
8ee
8eee
8eee
8fff#
8fff#
8eee
8eee
=480
8ff#
8ff#
8fff#
8fff#
8ggg#
8ggg#
8fff#
8fff#
=481
8gg#
8gg#
8ggg#
8ggg#
8aaa
8aaa
8ggg#
8ggg#
=482
2bbb
2aaa
=483
1aaa[
=484
2aaa]
2r
=485
2r
4r
4gg#
=486
2bb
2aa
=487
2ee
4a
4b
=488
2cc#
4ee
4aa
=489
2ccc#
2bb
=490
4ee
4cc#
4a
4b
=491
4cc#
4ee
4aa
4ccc#
=492
2fff#
2eee
=493
2gg
4ff#
4aa#
=494
2ccc#
2bb
=495
2ee#
4ee
4gg#
=496
4bb
4aa
4ee
4cc#
=497
4a
4b
4cc#
4dd#
=498
1ee
=499
1r
=500
1r
=501
4aa
4bb
4ccc#
4ddd#
=502
1eee
=503
1eee[
=504
2eee]
2r
=505
2r
8a
8aa
8b
8bb
=506
8cc#
8ccc#
8dd#
8ddd#
8ee
8eee
8cc#
8ccc#
=507
8dd#
8ddd#
8ee
8eee
8cc#
8ccc#
8dd#
8ddd#
=508
2eee
2r
=509
2ee
2r
=510
2aa
2r
==
*-
